X:1
T:Can Ye Sew Cushions
M:4/4
L:1/4
K:Eb
 z2 E G| A B G E| E G A B| F2 E G| AB/2-A/2 G/2F/2 E-| F G3/2 A/2 F|\
 E2 E G| B e G E2| G B e c3| B A G F| E F G3/2 A/2| F E2 z|
M:4/4
 G E B,/4- E3/4 E| F3/4 G/4 F3/4 G/4 F E| G3/2 E/2 B,3/2 E/2| F F3/4 G/4 E2|\
 G3/2 E/2 B,/4- E3/4 E| F3/4 G/4 F3/4 G/4 F E| G3/2 E/2 B,/4- E3/4 E|\
 G3/2 E/2 F G3/4 F/4| E4|
